icons/pencil-ruler-line.svg

<svg xmlns="http://www.w3.org/2000/svg" width="24" height="24" fill="none"><g clip-path="url(#a)"><g><path fill="#121212" d="M5 8V20H9V8H5ZM3 7L7 2L11 7V22H3V7ZM19 16V14H16V12H19V10H17V8H19V6H15V20H19V18H17V16H19ZM14 4H20C20.2652 4 20.5196 4.10536 20.7071 4.29289C20.8946 4.48043 21 4.73478 21 5V21C21 21.2652 20.8946 21.5196 20.7071 21.7071C20.5196 21.8946 20.2652 22 20 22H14C13.7348 22 13.4804 21.8946 13.2929 21.7071C13.1054 21.5196 13 21.2652 13 21V5C13 4.73478 13.1054 4.48043 13.2929 4.29289C13.4804 4.10536 13.7348 4 14 4Z"/></g></g><defs><clipPath id="a"><rect width="24" height="24" fill="white"/></clipPath></defs></svg>

<svg width="24" height="24" fill="none" xmlns="http://www.w3.org/2000/svg"><g clip-path="url(#a)"><path d="M5 8v12h4V8H5ZM3 7l4-5 4 5v15H3V7Zm16 9v-2h-3v-2h3v-2h-2V8h2V6h-4v14h4v-2h-2v-2h2ZM14 4h6a1 1 0 0 1 1 1v16a1 1 0 0 1-1 1h-6a1 1 0 0 1-1-1V5a1 1 0 0 1 1-1Z" /></g><defs><clipPath id="a"><path fill="#fff" d="M0 0h24v24H0z"/></clipPath></defs></svg>
